X:1
T:Title
%%score ( 1 2 ) { 3 | 4 }
L:1/8
Q:1/4=95
M:4/4
K:Ab
V:1 treble nm="Grand Piano, Soprano"
V:2 treble 
V:3 bass nm="Choir Pad, Bass"
V:4 bass 
V:1
 [CE][CF][CA][CB] [CA][DF] [CE]2 | [CE][DF][EA][EG] [EA][EB] [Ac]2 | %2
w: By~Marcus~Lafayette~Williams * * * * * *||
 [Ac][Ae][Ae][Af] [Ae][Ac] [AB]2 | [Ac][Ac] [GB]6 | [CE][CF][CA][CB] [CA][DF] [CE]2 | %5
w: |||
 [CE][DF][EA][EB] [Ec][Ec] [Ae]2 | [Ae][Ae][Af][Ae] [Ae][Ac] [GB]2 | [Gc]>[GB] [EA]6 | z2 e6 | %9
w: ||||
 z2 e6 | [Ac][Ae][Ae][Af] [Ae][Ac] [AB]2 | z2 B6 | z2 e6 | z2 e6 | %14
w: |||||
 [Ae][Ae][Af][Ae] [Ae][Ac] [GB]2 | z2 A4 z2 | z8 |] %17
w: |||
V:2
 x8 | x8 | x8 | x8 | x8 | x8 | x8 | x8 | [Ae]>[Ac] AA GG A2 | [Af]>[Ac] AA GG A2 | x8 | %11
 [Ac][Ac]GG FF G2 | [Ae]>[Ac] AA GG A2 | [Af]>[Ac] AA GG A2 | x8 | [Gc]>[GB] EF FE [EA]2- | %16
 [EA]4 z4 |] %17
V:3
 A,A,A,A, A,A, A,2 | A,A,[K:treble]CB, CD E2 | ECCC CE =D2 | =DD E6 | A,A,A,A, A,A, A,2 | %5
 A,A,[K:treble]CC CC C2 | CCCC CE D2 | E>D C6 | C>E CC B,B, C2 | C>E CC B,B, C2 | ECCC CE =D2 | %11
 =DDEE DD E2 | C>E CC B,B, C2 | C>E CC B,B, C2 | CCCC CE D2 | E>D CD DC C2- | C4 z4 |] %17
V:4
 A,,A,,A,,A,, A,,A,, A,,2 | z2 A,A, A,A, A,2 | A,A,A,A, A,A, F,2 | B,,B,, E,6 | %4
 A,,A,,A,,A,, A,,A,, A,,2 | z2 A,A, A,A, A,2 | A,A,A,A, A,A, E,2 | E,>E, A,,6 | %8
 A,>A, A,A, E,E, A,2 | A,>A, A,A, E,E, A,2 | A,A,A,A, A,A, F,2 | B,,B,,E,E, B,,B,, E,2 | %12
 A,>A, A,A, E,E, A,2 | A,>A, A,A, E,E, A,2 | A,A,A,A, A,A, E,2 | E,>E, A,,6- | A,,4 z4 |] %17

